svg/food/fork_spoon_fill.svg

<?xml version="1.0" encoding="UTF-8"?>
<svg width="24px" height="24px" viewBox="0 0 24 24" version="1.1" xmlns="http://www.w3.org/2000/svg" xmlns:xlink="http://www.w3.org/1999/xlink">
    <title>fork_spoon_fill</title>
    <g id="Icon" stroke="none" stroke-width="1" fill="none" fill-rule="evenodd">
        <g id="Food" transform="translate(-816.000000, -48.000000)" fill-rule="nonzero">
            <g id="fork_spoon_fill" transform="translate(816.000000, 48.000000)">
                <path d="M24,0 L24,24 L0,24 L0,0 L24,0 Z M12.5935,23.2578 L12.5819,23.2595 L12.5109,23.295 L12.4919,23.2987 L12.4767,23.295 L12.4057,23.2595 C12.3958,23.2564 12.387,23.259 12.3821,23.2649 L12.378,23.2758 L12.3609,23.7031 L12.3659,23.7235 L12.3769,23.7357 L12.4805,23.8097 L12.4953,23.8136 L12.5071,23.8097 L12.6107,23.7357 L12.6233,23.7197 L12.6267,23.7031 L12.6096,23.2758 C12.6076,23.2657 12.601,23.2593 12.5935,23.2578 Z M12.8584,23.1453 L12.8445,23.1473 L12.6598,23.2397 L12.6499,23.2499 L12.6472,23.2611 L12.6651,23.6906 L12.6699,23.7034 L12.6784,23.7105 L12.8793,23.8032 C12.8914,23.8069 12.9022,23.803 12.9078,23.7952 L12.9118,23.7812 L12.8777,23.1665 C12.8753,23.1546 12.8674,23.147 12.8584,23.1453 Z M12.143,23.1473 C12.1332,23.1424 12.1222,23.1453 12.1156,23.1526 L12.1099,23.1665 L12.0758,23.7812 C12.0751,23.7927 12.0828,23.8019 12.0926,23.8046 L12.1083,23.8032 L12.3092,23.7105 L12.3186,23.7024 L12.3225,23.6906 L12.3404,23.2611 L12.3372,23.2485 L12.3278,23.2397 L12.143,23.1473 Z" id="MingCute"></path>
                <path d="M17.015,3.05451 C17.4644,2.7335 18.089,2.83759 18.41,3.287 C18.7063077,3.70184923 18.6404,4.26592166 18.2750418,4.60273036 L18.1775,4.68198 L16.0758,6.18318 C15.43292,6.642408 15.1584329,7.40577573 15.2816893,8.11957957 L15.3142,8.27165 L18.6569,4.9289 C19.0474,4.53838 19.6806,4.53838 20.0711,4.9289 C20.4315615,5.28938923 20.4592893,5.85661645 20.1542834,6.24891152 L20.0711,6.34312 L16.7284,9.68586 C17.4332533,9.86607733 18.2130222,9.6464808 18.7138729,9.05633973 L18.8168,8.92422 L20.318,6.82254 C20.6391,6.37312 21.2636,6.26903 21.713,6.59004 C22.1278308,6.88635692 22.2484414,7.44131148 22.0120671,7.87840888 L21.9455,7.98501 L20.4443,10.0867 C19.2638586,11.7392793 17.0876161,12.1854681 15.39071,11.3030359 L15.2108,11.2034 L12.9135282,13.4991643 L17.0712,17.6568 C17.4316615,18.0172615 17.4593893,18.5844355 17.1543834,18.9767776 L17.0712,19.071 C16.7107385,19.4314615 16.1434793,19.4591893 15.7512027,19.1541834 L15.657,19.071 L11.4995282,14.9131643 L7.3432,19.071 C6.98271077,19.4315538 6.41548355,19.4592888 6.02318848,19.1542047 L5.92898,19.071 C5.5685,18.7105385 5.54077077,18.1432793 5.84579231,17.7510027 L5.92898,17.6568 L10.0855282,13.4991643 L8.47506,11.8891 C8.07899143,12.1039 7.61576449,12.2740306 7.12054373,12.3617706 L6.87043,12.3986 C5.82116,12.5216 4.60768,12.2643 3.59196,11.2486 C2.66312,10.3198 2.1323,9.1502 2.00008,8.02671 C1.87009,6.92206 2.11941,5.73848 2.92905,4.92884 C3.73869,4.11921 4.92226,3.86988 6.02692,3.99988 C7.15041,4.13209 8.31998,4.66292 9.24882,5.59176 C10.2645,6.60748 10.5218,7.82096 10.3988,8.87022 C10.3395714,9.37512 10.1916653,9.85392367 9.99278402,10.2713594 L9.88927,10.4748 L11.4995282,12.0851643 L13.7966,9.7892 C12.8191103,8.12848138 13.1746071,5.93562159 14.7408598,4.68592933 L14.9133,4.55571 L17.015,3.05451 Z" id="路径" fill="#09244B"></path>
            </g>
        </g>
    </g>
</svg>

<svg xmlns="http://www.w3.org/2000/svg" width="24" height="24"><g fill="none" fill-rule="nonzero"><path d="M24 0v24H0V0h24ZM12.594 23.258l-.012.002-.071.035-.02.004-.014-.004-.071-.036c-.01-.003-.019 0-.024.006l-.004.01-.017.428.005.02.01.013.104.074.015.004.012-.004.104-.074.012-.016.004-.017-.017-.427c-.002-.01-.009-.017-.016-.018Zm.264-.113-.014.002-.184.093-.01.01-.003.011.018.43.005.012.008.008.201.092c.012.004.023 0 .029-.008l.004-.014-.034-.614c-.003-.012-.01-.02-.02-.022Zm-.715.002a.023.023 0 0 0-.027.006l-.006.014-.034.614c0 .012.007.02.017.024l.015-.002.201-.093.01-.008.003-.011.018-.43-.003-.012-.01-.01-.184-.092Z"/><path fill="#09244B" d="M17.015 3.055a1 1 0 0 1 1.26 1.548l-.098.079-2.101 1.501a1.963 1.963 0 0 0-.794 1.937l.032.152 3.343-3.343a1 1 0 0 1 1.497 1.32l-.083.094-3.343 3.343c.705.18 1.485-.04 1.986-.63l.103-.132 1.501-2.101a1 1 0 0 1 1.694 1.055l-.067.107-1.5 2.102a3.968 3.968 0 0 1-5.054 1.216l-.18-.1-2.297 2.296 4.157 4.158a1 1 0 0 1 .083 1.32l-.083.094a1 1 0 0 1-1.32.083l-.094-.083-4.157-4.158-4.157 4.158a1 1 0 0 1-1.32.083l-.094-.083a1 1 0 0 1-.083-1.32l.083-.094 4.157-4.158-1.61-1.61a4.52 4.52 0 0 1-1.355.473l-.25.037a3.891 3.891 0 0 1-3.279-1.15C2.663 10.319 2.132 9.15 2 8.027c-.13-1.105.12-2.289.93-3.098.809-.81 1.992-1.06 3.097-.93 1.123.133 2.293.664 3.222 1.593a3.891 3.891 0 0 1 1.15 3.278c-.06.505-.207.984-.406 1.401l-.104.204 1.61 1.61 2.298-2.296a3.968 3.968 0 0 1 .944-5.103l.172-.13 2.102-1.501Z"/></g></svg>
